X:713
T: STERBEN IST EIN SCHWERER BUSS
N: E2159
O: Europa, Mitteleuropa, Deutschland
R: geistlich, Moral - Lied, Tod
M: 4/4
L: 1/8
K: G
 | d3c_B2A2 | G2D2D4 |
d3c_B2A2 | G2D2D4 |
_B2B2d2d2 | _B2B2d4 |
_e4d4 | c4_B4 | A2A2G4

@@@ Tune index: 5397
